X: 1
T:Mazurka Rigal
R:Mazurka
O:France
M:3/4
Q:1/8=350
K:GDor
GB|\
d2^cd =ed|B3d =ed|AGAcBA|B2A2GB|\
d2^cd=ed|B3ded|AGAcBA|G4:|
|:GA|\
B2BcAB|G3A GF|EDABcA|B2A2GA|\
B2BcAB|G3A GF|EDABcA|G4:|
